X:1

T:White Blanket, The [1]

M:4/4

L:1/8

Z:Lorna LaVerne

K:G Major

(3ABc |dFFE FGAF | EF (3ABc d3B |cBAF E2FA | B2Bc B2AB |

cBAF ECEF | A2AB A2(3ABc |dFFE FGAF | EF (3ABc d3B |

cBAF E2FA | B2Bc B2AB |cBAF ECEF | A2AB AAce |

f2fe fgaf | ec(3ABc d3B |cBAF E2FA | B2Bc B2AB |

cBAF ECEF | A2AB AAce |f2fe fgaf | ec(3ABc d3B |

cBAF E2FA | B2Bc B2AB |cBAF ECEF | A2AB A2 |

 

WHITE BLANKET [2], THE (An Súisín Bán). Irish, Air (4/4 or cut time). G Major. Standard tuning (fiddle). AB (Shields): AABB (O’Neill). Sources for notated versions: copied from O’Farrell’s Pocket Companion (1804-10) [O’Neill]; a manuscript collection dated 1861 compiled by the Church of Ireland cleric James Goodman, who collected primarily in County Cork [Shields]. O’Neill (Waifs and Strays of Gaelic Melody), 1922; No. 87. Shields (Tunes of the Munster Pipers), 1998; No. 27, p. 14.

